icons/glyphs/glyph-chrome.svg

<?xml version="1.0" encoding="UTF-8" standalone="no"?><svg height="22" viewBox="0 0 22 22" width="22" xmlns="http://www.w3.org/2000/svg"><sodipodi:namedview/><metadata><rdf:RDF><cc:Work><dc:format>image/svg+xml</dc:format><dc:type/><dc:title/></cc:Work></rdf:RDF></metadata><path d="m11 .0009765c-3.9181556.00402885-7.5345558 2.0938177-9.5 5.4804688h9.5c2.620962-.0000002 4.799435 1.8508049 5.357422 4.3066406l3.240234-5.6152344c-2.081078-2.6231219-5.239718-4.16861722-8.597656-4.171875zm9.527344 5.5351562-4.748047 8.2246103-.01172-.0078c-.955954 1.648798-2.730471 2.767564-4.767577 2.767564-.569824 0-1.1100293-.110459-1.6269531-.273437l3.2402341 5.611328c5.372434-.796357 9.379739-5.399743 9.386719-10.857421-.004792-1.9193428-.514381-3.8024779-1.472656-5.4648443zm-19.75000025 1.4335938c-.50647976 1.2840395-.77714223 2.6493579-.77734375 4.0312505 0 6.067865 4.9134025 10.986285 10.978516 10.998046l-4.7578129-8.23828.019531-.01172c-.4731278-.811804-.7597654-1.743496-.7597653-2.748046-.0000001-1.5921646.6854738-3.022715 1.7695312-4.0312505zm10.22265625 0a4.0315924 4.0315924 0 0 0 -4.03125 4.0312505 4.0315924 4.0315924 0 0 0 4.03125 4.03125 4.0315924 4.0315924 0 0 0 4.03125-4.03125 4.0315924 4.0315924 0 0 0 -4.03125-4.0312505z" fill="#fff" stroke-width="1.071262"/></svg>

<?xml version="1.0" encoding="UTF-8" standalone="no"?>
<!-- Created with Inkscape (http://www.inkscape.org/) -->

<svg
   xmlns:dc="http://purl.org/dc/elements/1.1/"
   xmlns:cc="http://creativecommons.org/ns#"
   xmlns:rdf="http://www.w3.org/1999/02/22-rdf-syntax-ns#"
   xmlns:svg="http://www.w3.org/2000/svg"
   xmlns="http://www.w3.org/2000/svg"
   xmlns:sodipodi="http://sodipodi.sourceforge.net/DTD/sodipodi-0.dtd"
   xmlns:inkscape="http://www.inkscape.org/namespaces/inkscape"
   width="22"
   height="22"
   viewBox="0 0 22 22"
   version="1.1"
   id="svg8"
   inkscape:version="0.92+devel 15640 custom"
   sodipodi:docname="glyph-chrome.svg">
  <defs
     id="defs2" />
  <sodipodi:namedview
     id="base"
     pagecolor="#002266"
     bordercolor="#ffffff"
     borderopacity="0.46666667"
     inkscape:pageopacity="0"
     inkscape:pageshadow="2"
     inkscape:zoom="18.500001"
     inkscape:cx="20.648938"
     inkscape:cy="12.794693"
     inkscape:document-units="px"
     inkscape:current-layer="svg8"
     inkscape:document-rotation="0"
     showgrid="false"
     inkscape:showpageshadow="false"
     borderlayer="true"
     units="px"
     fit-margin-top="0"
     fit-margin-left="0"
     fit-margin-right="0"
     fit-margin-bottom="0"
     inkscape:window-width="1920"
     inkscape:window-height="1051"
     inkscape:window-x="0"
     inkscape:window-y="0"
     inkscape:window-maximized="1"
     inkscape:snap-page="true"
     inkscape:snap-center="true"
     inkscape:snap-object-midpoints="true"
     inkscape:snap-bbox="false"
     inkscape:object-paths="true"
     inkscape:snap-smooth-nodes="true" />
  <metadata
     id="metadata5">
    <rdf:RDF>
      <cc:Work
         rdf:about="">
        <dc:format>image/svg+xml</dc:format>
        <dc:type
           rdf:resource="http://purl.org/dc/dcmitype/StillImage" />
        <dc:title></dc:title>
      </cc:Work>
    </rdf:RDF>
  </metadata>
  <path
     style="fill:#ffffff;stroke-width:1.071262"
     d="M 11,9.765e-4 C 7.0818444,0.00500535 3.4654442,2.0947942 1.5,5.4814453 H 11 c 2.620962,-2e-7 4.799435,1.8508049 5.357422,4.3066406 L 19.597656,4.1728515 C 17.516578,1.5497296 14.357938,0.00423428 11,9.765e-4 Z m 9.527344,5.5351562 -4.748047,8.2246103 -0.01172,-0.0078 C 14.811623,15.401741 13.037106,16.520507 11,16.520507 c -0.569824,0 -1.1100293,-0.110459 -1.6269531,-0.273437 l 3.2402341,5.611328 C 17.985715,21.062041 21.99302,16.458655 22,11.000977 21.995208,9.0816342 21.485619,7.1984991 20.527344,5.5361327 Z M 0.77734375,6.9697265 C 0.27086399,8.253766 2.0151519e-4,9.6190844 0,11.000977 0,17.068842 4.9134025,21.987262 10.978516,21.999023 l -4.7578129,-8.23828 0.019531,-0.01172 C 5.7671063,12.937219 5.4804687,12.005527 5.4804688,11.000977 5.4804687,9.4088124 6.1659426,7.978262 7.25,6.9697265 Z M 11,6.9697265 A 4.0315924,4.0315924 0 0 0 6.96875,11.000977 4.0315924,4.0315924 0 0 0 11,15.032227 4.0315924,4.0315924 0 0 0 15.03125,11.000977 4.0315924,4.0315924 0 0 0 11,6.9697265 Z"
     id="path3456"
     inkscape:label="glyph"
     inkscape:connector-curvature="0" />
</svg>
